; HEADER_BLOCK_START
; generated by OrcaSlicer 2.3.0 on 2025-09-08 at 10:27:19
; total layer number: 10
;_GP_TOTAL_LAYER_NUMBER_PLACEHOLDER
; filament_density: 1.21
; filament_diameter: 1.75
; max_z_height: 2.00
; HEADER_BLOCK_END

; THUMBNAIL_BLOCK_START

;
; THUMBNAIL_BLOCK_END

; THUMBNAIL_BLOCK_START

;
; THUMBNAIL_BLOCK_END

; external perimeters extrusion width = 0.40mm
; perimeters extrusion width = 0.40mm
; infill extrusion width = 0.40mm
; solid infill extrusion width = 0.48mm
; top infill extrusion width = 0.48mm
; support material extrusion width = 0.45mm
; first layer extrusion width = 0.40mm

; external perimeters extrusion width = 0.40mm
; perimeters extrusion width = 0.40mm
; infill extrusion width = 0.40mm
; solid infill extrusion width = 0.48mm
; top infill extrusion width = 0.48mm
; support material extrusion width = 0.45mm
; first layer extrusion width = 0.40mm

; external perimeters extrusion width = 0.40mm
; perimeters extrusion width = 0.40mm
; infill extrusion width = 0.40mm
; solid infill extrusion width = 0.48mm
; top infill extrusion width = 0.48mm
; support material extrusion width = 0.45mm
; first layer extrusion width = 0.40mm

; external perimeters extrusion width = 0.40mm
; perimeters extrusion width = 0.40mm
; infill extrusion width = 0.40mm
; solid infill extrusion width = 0.48mm
; top infill extrusion width = 0.48mm
; support material extrusion width = 0.45mm
; first layer extrusion width = 0.40mm

; external perimeters extrusion width = 0.40mm
; perimeters extrusion width = 0.40mm
; infill extrusion width = 0.40mm
; solid infill extrusion width = 0.48mm
; top infill extrusion width = 0.48mm
; support material extrusion width = 0.45mm
; first layer extrusion width = 0.40mm

; external perimeters extrusion width = 0.40mm
; perimeters extrusion width = 0.40mm
; infill extrusion width = 0.40mm
; solid infill extrusion width = 0.48mm
; top infill extrusion width = 0.48mm
; support material extrusion width = 0.45mm
; first layer extrusion width = 0.40mm

; external perimeters extrusion width = 0.40mm
; perimeters extrusion width = 0.40mm
; infill extrusion width = 0.40mm
; solid infill extrusion width = 0.48mm
; top infill extrusion width = 0.48mm
; support material extrusion width = 0.45mm
; first layer extrusion width = 0.40mm

; external perimeters extrusion width = 0.40mm
; perimeters extrusion width = 0.40mm
; infill extrusion width = 0.40mm
; solid infill extrusion width = 0.48mm
; top infill extrusion width = 0.48mm
; support material extrusion width = 0.45mm
; first layer extrusion width = 0.40mm

; external perimeters extrusion width = 0.40mm
; perimeters extrusion width = 0.40mm
; infill extrusion width = 0.40mm
; solid infill extrusion width = 0.48mm
; top infill extrusion width = 0.48mm
; support material extrusion width = 0.45mm
; first layer extrusion width = 0.40mm

; external perimeters extrusion width = 0.40mm
; perimeters extrusion width = 0.40mm
; infill extrusion width = 0.40mm
; solid infill extrusion width = 0.48mm
; top infill extrusion width = 0.48mm
; support material extrusion width = 0.45mm
; first layer extrusion width = 0.40mm

; external perimeters extrusion width = 0.40mm
; perimeters extrusion width = 0.40mm
; infill extrusion width = 0.40mm
; solid infill extrusion width = 0.48mm
; top infill extrusion width = 0.48mm
; support material extrusion width = 0.45mm
; first layer extrusion width = 0.40mm

; EXECUTABLE_BLOCK_START
EXCLUDE_OBJECT_DEFINE NAME=flowrate_0_id_0_copy_0 CENTER=139.5,155 POLYGON=[[124.5,141.5],[124.523,141.24],[124.59,140.987],[124.701,140.75],[124.851,140.536],[125.036,140.351],[125.25,140.201],[125.487,140.09],[125.74,140.023],[126,140],[153,140],[153.26,140.023],[153.513,140.09],[153.75,140.201],[153.964,140.351],[154.149,140.536],[154.299,140.75],[154.41,140.987],[154.477,141.24],[154.5,141.5],[154.5,158.5],[154.477,158.76],[154.41,159.013],[154.299,159.25],[149.299,169.25],[149.149,169.464],[148.964,169.649],[148.75,169.799],[148.513,169.91],[148.26,169.977],[148,170],[131,170],[130.74,169.977],[130.487,169.91],[130.25,169.799],[130.036,169.649],[129.851,169.464],[129.701,169.25],[124.701,159.25],[124.59,159.013],[124.523,158.76],[124.5,158.5],[124.5,141.5]]
EXCLUDE_OBJECT_DEFINE NAME=flowrate_0.01_id_1_copy_0 CENTER=108.5,155 POLYGON=[[93.5,141.5],[93.5228,141.24],[93.5905,140.987],[93.701,140.75],[93.8509,140.536],[94.0358,140.351],[94.25,140.201],[94.487,140.09],[94.7395,140.023],[95,140],[122,140],[122.26,140.023],[122.513,140.09],[122.75,140.201],[122.964,140.351],[123.149,140.536],[123.299,140.75],[123.41,140.987],[123.477,141.24],[123.5,141.5],[123.5,158.5],[123.477,158.76],[123.41,159.013],[123.299,159.25],[118.299,169.25],[118.149,169.464],[117.964,169.649],[117.75,169.799],[117.513,169.91],[117.26,169.977],[117,170],[100,170],[99.7395,169.977],[99.487,169.91],[99.25,169.799],[99.0358,169.649],[98.8509,169.464],[98.701,169.25],[93.701,159.25],[93.5905,159.013],[93.5228,158.76],[93.5,158.5],[93.5,141.5]]
EXCLUDE_OBJECT_DEFINE NAME=flowrate_0.02_id_2_copy_0 CENTER=108.5,187 POLYGON=[[93.5,173.5],[93.5228,173.24],[93.5905,172.987],[93.701,172.75],[93.8509,172.536],[94.0358,172.351],[94.25,172.201],[94.487,172.09],[94.7395,172.023],[95,172],[122,172],[122.26,172.023],[122.513,172.09],[122.75,172.201],[122.964,172.351],[123.149,172.536],[123.299,172.75],[123.41,172.987],[123.477,173.24],[123.5,173.5],[123.5,190.5],[123.477,190.76],[123.41,191.013],[123.299,191.25],[118.299,201.25],[118.149,201.464],[117.964,201.649],[117.75,201.799],[117.513,201.91],[117.26,201.977],[117,202],[100,202],[99.7395,201.977],[99.487,201.91],[99.25,201.799],[99.0358,201.649],[98.8509,201.464],[98.701,201.25],[93.701,191.25],[93.5905,191.013],[93.5228,190.76],[93.5,190.5],[93.5,173.5]]
EXCLUDE_OBJECT_DEFINE NAME=flowrate_0.03_id_3_copy_0 CENTER=139.5,187 POLYGON=[[124.5,173.5],[124.523,173.24],[124.59,172.987],[124.701,172.75],[124.851,172.536],[125.036,172.351],[125.25,172.201],[125.487,172.09],[125.74,172.023],[126,172],[153,172],[153.26,172.023],[153.513,172.09],[153.75,172.201],[153.964,172.351],[154.149,172.536],[154.299,172.75],[154.41,172.987],[154.477,173.24],[154.5,173.5],[154.5,190.5],[154.477,190.76],[154.41,191.013],[154.299,191.25],[149.299,201.25],[149.149,201.464],[148.964,201.649],[148.75,201.799],[148.513,201.91],[148.26,201.977],[148,202],[131,202],[130.74,201.977],[130.487,201.91],[130.25,201.799],[130.036,201.649],[129.851,201.464],[129.701,201.25],[124.701,191.25],[124.59,191.013],[124.523,190.76],[124.5,190.5],[124.5,173.5]]
EXCLUDE_OBJECT_DEFINE NAME=flowrate_0.04_id_4_copy_0 CENTER=170.5,187 POLYGON=[[155.5,173.5],[155.523,173.24],[155.59,172.987],[155.701,172.75],[155.851,172.536],[156.036,172.351],[156.25,172.201],[156.487,172.09],[156.74,172.023],[157,172],[184,172],[184.26,172.023],[184.513,172.09],[184.75,172.201],[184.964,172.351],[185.149,172.536],[185.299,172.75],[185.41,172.987],[185.477,173.24],[185.5,173.5],[185.5,190.5],[185.477,190.76],[185.41,191.013],[185.299,191.25],[180.299,201.25],[180.149,201.464],[179.964,201.649],[179.75,201.799],[179.513,201.91],[179.26,201.977],[179,202],[162,202],[161.74,201.977],[161.487,201.91],[161.25,201.799],[161.036,201.649],[160.851,201.464],[160.701,201.25],[155.701,191.25],[155.59,191.013],[155.523,190.76],[155.5,190.5],[155.5,173.5]]
EXCLUDE_OBJECT_DEFINE NAME=flowrate_0.05_id_5_copy_0 CENTER=201.5,187 POLYGON=[[186.5,173.5],[186.523,173.24],[186.59,172.987],[186.701,172.75],[186.851,172.536],[187.036,172.351],[187.25,172.201],[187.487,172.09],[187.74,172.023],[188,172],[215,172],[215.26,172.023],[215.513,172.09],[215.75,172.201],[215.964,172.351],[216.149,172.536],[216.299,172.75],[216.41,172.987],[216.477,173.24],[216.5,173.5],[216.5,190.5],[216.477,190.76],[216.41,191.013],[216.299,191.25],[211.299,201.25],[211.149,201.464],[210.964,201.649],[210.75,201.799],[210.513,201.91],[210.26,201.977],[210,202],[193,202],[192.74,201.977],[192.487,201.91],[192.25,201.799],[192.036,201.649],[191.851,201.464],[191.701,201.25],[186.701,191.25],[186.59,191.013],[186.523,190.76],[186.5,190.5],[186.5,173.5]]
EXCLUDE_OBJECT_DEFINE NAME=flowrate_m0.01_id_6_copy_0 CENTER=170.5,155 POLYGON=[[155.5,141.5],[155.523,141.24],[155.59,140.987],[155.701,140.75],[155.851,140.536],[156.036,140.351],[156.25,140.201],[156.487,140.09],[156.74,140.023],[157,140],[184,140],[184.26,140.023],[184.513,140.09],[184.75,140.201],[184.964,140.351],[185.149,140.536],[185.299,140.75],[185.41,140.987],[185.477,141.24],[185.5,141.5],[185.5,158.5],[185.477,158.76],[185.41,159.013],[185.299,159.25],[180.299,169.25],[180.149,169.464],[179.964,169.649],[179.75,169.799],[179.513,169.91],[179.26,169.977],[179,170],[162,170],[161.74,169.977],[161.487,169.91],[161.25,169.799],[161.036,169.649],[160.851,169.464],[160.701,169.25],[155.701,159.25],[155.59,159.013],[155.523,158.76],[155.5,158.5],[155.5,141.5]]
EXCLUDE_OBJECT_DEFINE NAME=flowrate_m0.02_id_7_copy_0 CENTER=201.5,155 POLYGON=[[186.5,141.5],[186.523,141.24],[186.59,140.987],[186.701,140.75],[186.851,140.536],[187.036,140.351],[187.25,140.201],[187.487,140.09],[187.74,140.023],[188,140],[215,140],[215.26,140.023],[215.513,140.09],[215.75,140.201],[215.964,140.351],[216.149,140.536],[216.299,140.75],[216.41,140.987],[216.477,141.24],[216.5,141.5],[216.5,158.5],[216.477,158.76],[216.41,159.013],[216.299,159.25],[211.299,169.25],[211.149,169.464],[210.964,169.649],[210.75,169.799],[210.513,169.91],[210.26,169.977],[210,170],[193,170],[192.74,169.977],[192.487,169.91],[192.25,169.799],[192.036,169.649],[191.851,169.464],[191.701,169.25],[186.701,159.25],[186.59,159.013],[186.523,158.76],[186.5,158.5],[186.5,141.5]]
EXCLUDE_OBJECT_DEFINE NAME=flowrate_m0.03_id_8_copy_0 CENTER=201.5,123 POLYGON=[[186.5,109.5],[186.523,109.24],[186.59,108.987],[186.701,108.75],[186.851,108.536],[187.036,108.351],[187.25,108.201],[187.487,108.09],[187.74,108.023],[188,108],[215,108],[215.26,108.023],[215.513,108.09],[215.75,108.201],[215.964,108.351],[216.149,108.536],[216.299,108.75],[216.41,108.987],[216.477,109.24],[216.5,109.5],[216.5,126.5],[216.477,126.76],[216.41,127.013],[216.299,127.25],[211.299,137.25],[211.149,137.464],[210.964,137.649],[210.75,137.799],[210.513,137.91],[210.26,137.977],[210,138],[193,138],[192.74,137.977],[192.487,137.91],[192.25,137.799],[192.036,137.649],[191.851,137.464],[191.701,137.25],[186.701,127.25],[186.59,127.013],[186.523,126.76],[186.5,126.5],[186.5,109.5]]
EXCLUDE_OBJECT_DEFINE NAME=flowrate_m0.04_id_9_copy_0 CENTER=170.5,123 POLYGON=[[155.5,109.5],[155.523,109.24],[155.59,108.987],[155.701,108.75],[155.851,108.536],[156.036,108.351],[156.25,108.201],[156.487,108.09],[156.74,108.023],[157,108],[184,108],[184.26,108.023],[184.513,108.09],[184.75,108.201],[184.964,108.351],[185.149,108.536],[185.299,108.75],[185.41,108.987],[185.477,109.24],[185.5,109.5],[185.5,126.5],[185.477,126.76],[185.41,127.013],[185.299,127.25],[180.299,137.25],[180.149,137.464],[179.964,137.649],[179.75,137.799],[179.513,137.91],[179.26,137.977],[179,138],[162,138],[161.74,137.977],[161.487,137.91],[161.25,137.799],[161.036,137.649],[160.851,137.464],[160.701,137.25],[155.701,127.25],[155.59,127.013],[155.523,126.76],[155.5,126.5],[155.5,109.5]]
EXCLUDE_OBJECT_DEFINE NAME=flowrate_m0.05_id_10_copy_0 CENTER=139.5,123 POLYGON=[[124.5,109.5],[124.523,109.24],[124.59,108.987],[124.701,108.75],[124.851,108.536],[125.036,108.351],[125.25,108.201],[125.487,108.09],[125.74,108.023],[126,108],[153,108],[153.26,108.023],[153.513,108.09],[153.75,108.201],[153.964,108.351],[154.149,108.536],[154.299,108.75],[154.41,108.987],[154.477,109.24],[154.5,109.5],[154.5,126.5],[154.477,126.76],[154.41,127.013],[154.299,127.25],[149.299,137.25],[149.149,137.464],[148.964,137.649],[148.75,137.799],[148.513,137.91],[148.26,137.977],[148,138],[131,138],[130.74,137.977],[130.487,137.91],[130.25,137.799],[130.036,137.649],[129.851,137.464],[129.701,137.25],[124.701,127.25],[124.59,127.013],[124.523,126.76],[124.5,126.5],[124.5,109.5]]
M73 P0 R32
;TYPE:Custom
; === Prep ===
PRINT_START

; === Adaptive mesh over object bounds from Orca ===
BED_MESH_CLEAR
BED_MESH_CALIBRATE mesh_min=90.5138,105.014 mesh_max=219.486,204.986 algorithm=bicubic probe_count=4,4

; --- Park in middle while heating ---
G1 Z20 F3000
G1 X150 Y150 F9000

; --- Heat (macro handles bedless vs heated automatically) ---
HEAT_WAIT BED=0 EXTRUDER=215

; Small safety lift before purge (optional)
G1 Z5 F3000

; Purge line
_PURGE_LINE
G90
G21
M83 ; use relative distances for extrusion
; Filament gcode
M106 S0
;LAYER_CHANGE
;Z:0.2
;HEIGHT:0.2
;BEFORE_LAYER_CHANGE
;0.2
G92 E0

G1 E-5 F1800
TIMELAPSE_TAKE_FRAME

;_SET_FAN_SPEED_CHANGING_LAYER
SET_VELOCITY_LIMIT ACCEL=1500
G1 Z1 F12000
G1 X115.108 Y114.558
G1 Z1
G1 Z.2
G1 E5 F1800
;TYPE:Skirt
;WIDTH:0.4
G1 F3600
G1 X122.839 Y106.578 E.32987
G1 X123.432 Y106.047 E.02364
G1 X124.07 Y105.653 E.02227
G1 X124.767 Y105.377 E.02228
G1 X126.004 Y105.192 E.03711
G1 X215.248 Y105.203 E2.64979
G1 X215.994 Y105.313 E.02239
G1 X216.706 Y105.549 E.02227
G1 X217.367 Y105.905 E.02227
G1 X218.129 Y106.545 E.02956
G1 X218.595 Y107.133 E.02227
G1 X218.951 Y107.794 E.02228
G1 X219.187 Y108.506 E.02227
G1 X219.297 Y109.252 E.02239
G1 X219.308 Y190.496 E2.41226
G1 X219.187 Y191.494 E.02985
G1 X218.951 Y192.206 E.02227
G1 X213.812 Y202.501 E.34162
G1 X213.129 Y203.455 E.03484
G1 X212.569 Y203.953 E.02227
G1 X211.93 Y204.347 E.02228
G1 X211.233 Y204.623 E.02227
G1 X209.996 Y204.808 E.03711
G1 X100.004 Y204.808 E3.26582
G1 X99.006 Y204.687 E.02985
G1 X98.07 Y204.347 E.02956
G1 X97.431 Y203.953 E.02228
G1 X96.547 Y203.069 E.03715
G1 X96.188 Y202.501 E.01994
G1 X91.153 Y192.43 E.3343
G1 X90.877 Y191.733 E.02228
G1 X90.725 Y190.998 E.02227
G1 X90.692 Y141.504 E1.46954
G1 X90.877 Y140.267 E.03711
G1 X91.153 Y139.57 E.02228
G1 X91.839 Y138.578 E.03581
G1 X115.081 Y114.586 E.99179
G1 X115.363 Y114.861 F12000
G1 F3600
G1 X123.636 Y106.339 E.35264
G1 X124.221 Y105.977 E.02042
G1 X124.86 Y105.721 E.02043
G1 X126.004 Y105.549 E.03434
G1 X215.217 Y105.559 E2.64887
G1 X215.902 Y105.658 E.02054
G1 X216.555 Y105.873 E.02043
G1 X217.162 Y106.198 E.02043
G1 X217.877 Y106.798 E.02771
G1 X218.302 Y107.338 E.02043
G1 X218.627 Y107.945 E.02043
G1 X218.842 Y108.598 E.02043
G1 X218.941 Y109.283 E.02054
G1 X218.951 Y190.496 E2.41134
G1 X218.842 Y191.402 E.02708
G1 X218.627 Y192.055 E.02043
G1 X213.493 Y202.341 E.34133
G1 X212.877 Y203.202 E.03144
G1 X212.364 Y203.661 E.02042
G1 X211.779 Y204.023 E.02043
G1 X211.14 Y204.279 E.02043
G1 X209.996 Y204.451 E.03434
G1 X100.004 Y204.451 E3.26582
G1 X99.098 Y204.342 E.02708
G1 X98.221 Y204.023 E.02771
G1 X97.636 Y203.661 E.02043
G1 X96.839 Y202.864 E.03346
G1 X96.507 Y202.341 E.01839
G1 X91.507 Y192.341 E.33196
G1 X91.221 Y191.64 E.02248
G1 X91.081 Y190.967 E.02043
G1 X91.049 Y141.504 E1.46862
G1 X91.221 Y140.36 E.03434
M73 P1 R32
G1 X91.477 Y139.721 E.02043
G1 X92.095 Y138.826 E.03229
G1 X115.335 Y114.889 E.99059
G1 X115.588 Y115.135 F12000
G1 F3600
G1 X123.841 Y106.632 E.35183
G1 X124.372 Y106.3 E.01858
G1 X124.952 Y106.066 E.01858
G1 X126.004 Y105.906 E.03158
G1 X215.186 Y105.915 E2.64794
G1 X215.81 Y106.003 E.01869
G1 X216.405 Y106.196 E.01858
G1 X216.957 Y106.49 E.01858
G1 X217.624 Y107.05 E.02586
G1 X218.01 Y107.543 E.01858
G1 X218.304 Y108.095 E.01858
G1 X218.497 Y108.69 E.01858
G1 X218.594 Y109.504 E.02431
G1 X218.594 Y190.496 E2.40477
G1 X218.497 Y191.31 E.02431
G1 X218.174 Y192.182 E.02762
G1 X213.174 Y202.182 E.33196
G1 X212.624 Y202.95 E.02804
G1 X212.159 Y203.368 E.01858
G1 X211.628 Y203.7 E.01858
G1 X211.048 Y203.934 E.01858
G1 X209.996 Y204.094 E.03158
G1 X100.004 Y204.094 E3.26582
G1 X99.191 Y203.997 E.02431
G1 X98.372 Y203.7 E.02586
G1 X97.841 Y203.368 E.01858
G1 X97.132 Y202.659 E.02978
G1 X96.826 Y202.182 E.01683
G1 X91.826 Y192.182 E.33196
G1 X91.566 Y191.548 E.02034
G1 X91.437 Y190.936 E.01858
G1 X91.406 Y141.504 E1.46769
G1 X91.566 Y140.452 E.03158
G1 X91.8 Y139.872 E.01858
G1 X92.352 Y139.075 E.02877
G1 X115.56 Y115.163 E.98939
