; HEADER_BLOCK_START
; generated by OrcaSlicer 2.3.0 on 2025-09-07 at 00:54:39
; total layer number: 301
;_GP_TOTAL_LAYER_NUMBER_PLACEHOLDER
; filament_density: 1.21
; filament_diameter: 1.75
; max_z_height: 60.20
; HEADER_BLOCK_END

; THUMBNAIL_BLOCK_START

;
; THUMBNAIL_BLOCK_END

; THUMBNAIL_BLOCK_START

;
; THUMBNAIL_BLOCK_END

; external perimeters extrusion width = 0.40mm
; perimeters extrusion width = 0.40mm
; infill extrusion width = 0.40mm
; solid infill extrusion width = 0.40mm
; top infill extrusion width = 0.40mm
; support material extrusion width = 0.45mm
; first layer extrusion width = 0.40mm

; EXECUTABLE_BLOCK_START
EXCLUDE_OBJECT_DEFINE NAME=Overhang_Angle_Test_30-85.stl_id_0_copy_0 CENTER=155,155 POLYGON=[[109.865,149.5],[200.135,149.5],[200.135,160.5],[109.865,160.5],[109.865,149.5]]
M73 P0 R27
;TYPE:Custom
; === Prep ===
PRINT_START

; === Adaptive mesh over object bounds from Orca ===
BED_MESH_CLEAR
BED_MESH_CALIBRATE mesh_min=136.551,146.514 mesh_max=200.228,163.486 algorithm=bicubic probe_count=4,4

; --- Park in middle while heating ---
G1 Z20 F3000
G1 X150 Y150 F9000

; --- Heat (macro handles bedless vs heated automatically) ---
HEAT_WAIT BED=0 EXTRUDER=215

; Small safety lift before purge (optional)
G1 Z5 F3000

; Purge line
_PURGE_LINE
G90
G21
M83 ; use relative distances for extrusion
; Filament gcode
M106 S0
;LAYER_CHANGE
;Z:0.2
;HEIGHT:0.2
;BEFORE_LAYER_CHANGE
;0.2
G92 E0

G1 E-5 F2700
TIMELAPSE_TAKE_FRAME

;_SET_FAN_SPEED_CHANGING_LAYER
SET_VELOCITY_LIMIT ACCEL=1500
G1 Z1 F12000
G1 X145.244 Y146.692
G1 Z1
G1 Z.2
G1 E5 F1800
;TYPE:Skirt
;WIDTH:0.4
G1 F3600
G1 X197.157 Y146.692 E1.54136
G1 X198.613 Y147.085 E.04478
G1 X199.673 Y148.158 E.04478
G1 X200.05 Y149.585 E.04383
G1 X200.05 Y160.415 E.32156
G1 X199.657 Y161.871 E.04478
G1 X198.584 Y162.931 E.04478
G1 X197.157 Y163.308 E.04383
G1 X139.622 Y163.308 E1.70829
G1 X138.166 Y162.915 E.04478
G1 X137.106 Y161.842 E.04478
G1 X136.729 Y160.415 E.04383
G1 X136.729 Y149.585 E.32156
G1 X137.122 Y148.129 E.04478
G1 X138.195 Y147.069 E.04478
G1 X139.622 Y146.692 E.04383
G1 X145.204 Y146.692 E.16575
G1 X145.204 Y147.049 F12000
G1 F3600
G1 X197.157 Y147.049 E1.54254
G1 X198.512 Y147.441 E.04187
G1 X199.447 Y148.497 E.04187
G1 X199.693 Y149.585 E.03313
G1 X199.693 Y160.415 E.32156
G1 X199.301 Y161.77 E.04187
G1 X198.246 Y162.705 E.04187
G1 X197.157 Y162.951 E.03313
G1 X139.622 Y162.951 E1.70829
G1 X138.267 Y162.559 E.04187
G1 X137.332 Y161.503 E.04187
G1 X137.086 Y160.415 E.03313
G1 X137.086 Y149.585 E.32156
G1 X137.478 Y148.23 E.04187
G1 X138.534 Y147.295 E.04187
G1 X139.622 Y147.049 E.03313
G1 X145.164 Y147.049 E.16456
G1 X145.164 Y147.406 F12000
G1 F3600
G1 X197.157 Y147.406 E1.54373
G1 X198.402 Y147.797 E.03874
G1 X199.2 Y148.83 E.03874
G1 X199.336 Y149.585 E.02279
G1 X199.336 Y160.415 E.32156
G1 X198.945 Y161.66 E.03874
G1 X197.913 Y162.458 E.03874
G1 X197.157 Y162.594 E.02279
G1 X139.622 Y162.594 E1.70829
G1 X138.377 Y162.203 E.03874
G1 X137.579 Y161.17 E.03874
G1 X137.443 Y160.415 E.02279
G1 X137.443 Y149.585 E.32156
G1 X137.834 Y148.34 E.03874
G1 X138.866 Y147.542 E.03874
G1 X139.622 Y147.406 E.02279
G1 X145.124 Y147.406 E.16338
; printing object Overhang+Angle+Test+30-85.stl id:0 copy 0
G1 E-4.25 F2700
;WIPE_START
G1 F3600
G1 X146.124 Y147.406 E-.75
;WIPE_END
EXCLUDE_OBJECT_START NAME=Overhang_Angle_Test_30-85.stl_id_0_copy_0
G1 X196.243 Y159.501 F12000
G1 E5 F1800
;TYPE:Inner wall
;WIDTH:0.399999
G1 F3600
G1 X140.536 Y159.501 E1.65401
G1 X140.536 Y150.499 E.26727
G1 X196.243 Y150.499 E1.65401
G1 X196.243 Y159.461 E.26608
M73 P1 R27
G1 X196.6 Y159.858 F12000
G1 F3600
G1 X140.179 Y159.858 E1.67521
G1 X140.179 Y150.142 E.28848
G1 X196.6 Y150.142 E1.67521
G1 X196.6 Y159.818 E.28729
G1 X196.957 Y160.215 F12000
;TYPE:Outer wall
G1 F3600
G1 X139.822 Y160.215 E1.69641
G1 X139.822 Y149.785 E.30968
G1 X196.957 Y149.785 E1.69641
G1 X196.957 Y160.175 E.30849
G1 E-4.25 F2700
;WIPE_START
G1 F3600
G1 X195.957 Y160.176 E-.75
;WIPE_END
G1 X196.136 Y151.331 F12000
G1 E5 F1800
;TYPE:Bottom surface
;WIDTH:0.401214
G1 F6000
G1 X195.572 Y150.767 E.02375
G1 X195.065 Y150.767 E.0151
G1 X195.975 Y151.677 E.03833
G1 X195.975 Y152.183 E.0151
G1 X194.559 Y150.767 E.05968
G1 X194.052 Y150.767 E.0151
G1 X195.975 Y152.69 E.08103
G1 X195.975 Y153.197 E.0151
G1 X193.545 Y150.767 E.10238
G1 X193.039 Y150.767 E.0151
G1 X195.975 Y153.704 E.12373
G1 X195.975 Y154.21 E.0151
G1 X192.532 Y150.767 E.14507
G1 X192.025 Y150.767 E.0151
G1 X195.975 Y154.717 E.16642
G1 X195.975 Y155.224 E.0151
G1 X191.518 Y150.767 E.18777
G1 X191.012 Y150.767 E.0151
G1 X195.975 Y155.73 E.20912
G1 X195.975 Y156.237 E.0151
G1 X190.505 Y150.767 E.23047
G1 X189.998 Y150.767 E.0151
G1 X195.975 Y156.744 E.25182
G1 X195.975 Y157.25 E.0151
G1 X189.492 Y150.767 E.27317
G1 X188.985 Y150.767 E.0151
G1 X195.975 Y157.757 E.29452
G1 X195.975 Y158.264 E.0151
G1 X188.478 Y150.767 E.31586
G1 X187.972 Y150.767 E.0151
G1 X195.975 Y158.771 E.33721
G1 X195.975 Y159.233 E.01378
G1 X195.931 Y159.233 E.00132
G1 X187.465 Y150.767 E.3567
G1 X186.958 Y150.767 E.0151
G1 X195.424 Y159.233 E.3567
G1 X194.918 Y159.233 E.0151
G1 X186.451 Y150.767 E.3567
G1 X185.945 Y150.767 E.0151
G1 X194.411 Y159.233 E.3567
G1 X193.904 Y159.233 E.0151
G1 X185.438 Y150.767 E.3567
G1 X184.931 Y150.767 E.0151
G1 X193.397 Y159.233 E.3567
G1 X192.891 Y159.233 E.0151
G1 X184.425 Y150.767 E.3567
G1 X183.918 Y150.767 E.0151
G1 X192.384 Y159.233 E.3567
G1 X191.877 Y159.233 E.0151
G1 X183.411 Y150.767 E.3567
G1 X182.905 Y150.767 E.0151
G1 X191.371 Y159.233 E.3567
G1 X190.864 Y159.233 E.0151
G1 X182.398 Y150.767 E.3567
G1 X181.891 Y150.767 E.0151
G1 X190.357 Y159.233 E.3567
G1 X189.85 Y159.233 E.0151
G1 X181.384 Y150.767 E.3567
G1 X180.878 Y150.767 E.0151
G1 X189.344 Y159.233 E.3567
G1 X188.837 Y159.233 E.0151
G1 X180.371 Y150.767 E.3567
G1 X179.864 Y150.767 E.0151
G1 X188.33 Y159.233 E.3567
G1 X187.824 Y159.233 E.0151
G1 X179.358 Y150.767 E.3567
G1 X178.851 Y150.767 E.0151
G1 X187.317 Y159.233 E.3567
G1 X186.81 Y159.233 E.0151
G1 X178.344 Y150.767 E.3567
G1 X177.837 Y150.767 E.0151
G1 X186.304 Y159.233 E.3567
G1 X185.797 Y159.233 E.0151
G1 X177.331 Y150.767 E.3567
G1 X176.824 Y150.767 E.0151
G1 X185.29 Y159.233 E.3567
G1 X184.783 Y159.233 E.0151
G1 X176.317 Y150.767 E.3567
G1 X175.811 Y150.767 E.0151
G1 X184.277 Y159.233 E.3567
G1 X183.77 Y159.233 E.0151
G1 X175.304 Y150.767 E.3567
G1 X174.797 Y150.767 E.0151
G1 X183.263 Y159.233 E.3567
G1 X182.757 Y159.233 E.0151
G1 X174.291 Y150.767 E.3567
G1 X173.784 Y150.767 E.0151
M73 P1 R26
G1 X182.25 Y159.233 E.3567
G1 X181.743 Y159.233 E.0151
G1 X173.277 Y150.767 E.3567
G1 X172.77 Y150.767 E.0151
G1 X181.237 Y159.233 E.3567
G1 X180.73 Y159.233 E.0151
G1 X172.264 Y150.767 E.3567
G1 X171.757 Y150.767 E.0151
G1 X180.223 Y159.233 E.3567
G1 X179.716 Y159.233 E.0151
G1 X171.25 Y150.767 E.3567
G1 X170.744 Y150.767 E.0151
G1 X179.21 Y159.233 E.3567
G1 X178.703 Y159.233 E.0151
G1 X170.237 Y150.767 E.3567
G1 X169.73 Y150.767 E.0151
G1 X178.196 Y159.233 E.3567
G1 X177.69 Y159.233 E.0151
G1 X169.224 Y150.767 E.3567
G1 X168.717 Y150.767 E.0151
G1 X177.183 Y159.233 E.3567
G1 X176.676 Y159.233 E.0151
M73 P2 R26
G1 X168.21 Y150.767 E.3567
G1 X167.703 Y150.767 E.0151
G1 X176.169 Y159.233 E.3567
G1 X175.663 Y159.233 E.0151
G1 X167.197 Y150.767 E.3567
G1 X166.69 Y150.767 E.0151
G1 X175.156 Y159.233 E.3567
G1 X174.649 Y159.233 E.0151
G1 X166.183 Y150.767 E.3567
G1 X165.677 Y150.767 E.0151
G1 X174.143 Y159.233 E.3567
G1 X173.636 Y159.233 E.0151
G1 X165.17 Y150.767 E.3567
G1 X164.663 Y150.767 E.0151
G1 X173.129 Y159.233 E.3567
G1 X172.623 Y159.233 E.0151
G1 X164.156 Y150.767 E.3567
G1 X163.65 Y150.767 E.0151
G1 X172.116 Y159.233 E.3567
G1 X171.609 Y159.233 E.0151
G1 X163.143 Y150.767 E.3567
G1 X162.636 Y150.767 E.0151
G1 X171.102 Y159.233 E.3567
G1 X170.596 Y159.233 E.0151
G1 X162.13 Y150.767 E.3567
G1 X161.623 Y150.767 E.0151
G1 X170.089 Y159.233 E.3567
G1 X169.582 Y159.233 E.0151
G1 X161.116 Y150.767 E.3567
G1 X160.61 Y150.767 E.0151
G1 X169.076 Y159.233 E.3567
G1 X168.569 Y159.233 E.0151
G1 X160.103 Y150.767 E.3567
G1 X159.596 Y150.767 E.0151
G1 X168.062 Y159.233 E.3567
G1 X167.555 Y159.233 E.0151
G1 X159.089 Y150.767 E.3567
G1 X158.583 Y150.767 E.0151
G1 X167.049 Y159.233 E.3567
G1 X166.542 Y159.233 E.0151
G1 X158.076 Y150.767 E.3567
G1 X157.569 Y150.767 E.0151
G1 X166.035 Y159.233 E.3567
G1 X165.529 Y159.233 E.0151
G1 X157.063 Y150.767 E.3567
G1 X156.556 Y150.767 E.0151
G1 X165.022 Y159.233 E.3567
G1 X164.515 Y159.233 E.0151
G1 X156.049 Y150.767 E.3567
G1 X155.542 Y150.767 E.0151
G1 X164.009 Y159.233 E.3567
G1 X163.502 Y159.233 E.0151
G1 X155.036 Y150.767 E.3567
G1 X154.529 Y150.767 E.0151
G1 X162.995 Y159.233 E.3567
G1 X162.488 Y159.233 E.0151
G1 X154.022 Y150.767 E.3567
G1 X153.516 Y150.767 E.0151
G1 X161.982 Y159.233 E.3567
G1 X161.475 Y159.233 E.0151
G1 X153.009 Y150.767 E.3567
G1 X152.502 Y150.767 E.0151
G1 X160.968 Y159.233 E.3567
G1 X160.462 Y159.233 E.0151
G1 X151.996 Y150.767 E.3567
G1 X151.489 Y150.767 E.0151
G1 X159.955 Y159.233 E.3567
G1 X159.448 Y159.233 E.0151
G1 X150.982 Y150.767 E.3567
G1 X150.475 Y150.767 E.0151
G1 X158.942 Y159.233 E.3567
G1 X158.435 Y159.233 E.0151
G1 X149.969 Y150.767 E.3567
G1 X149.462 Y150.767 E.0151
G1 X157.928 Y159.233 E.3567
G1 X157.421 Y159.233 E.0151
G1 X148.955 Y150.767 E.3567
G1 X148.449 Y150.767 E.0151
G1 X156.915 Y159.233 E.3567
G1 X156.408 Y159.233 E.0151
G1 X147.942 Y150.767 E.3567
G1 X147.435 Y150.767 E.0151
G1 X155.901 Y159.233 E.3567
G1 X155.395 Y159.233 E.0151
G1 X146.929 Y150.767 E.3567
G1 X146.422 Y150.767 E.0151
G1 X154.888 Y159.233 E.3567
G1 X154.381 Y159.233 E.0151
G1 X145.915 Y150.767 E.3567
G1 X145.408 Y150.767 E.0151
G1 X153.874 Y159.233 E.3567
G1 X153.368 Y159.233 E.0151
G1 X144.902 Y150.767 E.3567
G1 X144.395 Y150.767 E.0151
G1 X152.861 Y159.233 E.3567
G1 X152.354 Y159.233 E.0151
G1 X143.888 Y150.767 E.3567
G1 X143.382 Y150.767 E.0151
G1 X151.848 Y159.233 E.3567
G1 X151.341 Y159.233 E.0151
G1 X142.875 Y150.767 E.3567
G1 X142.368 Y150.767 E.0151
G1 X150.834 Y159.233 E.3567
G1 X150.328 Y159.233 E.0151
G1 X141.861 Y150.767 E.3567
G1 X141.355 Y150.767 E.0151
G1 X149.821 Y159.233 E.3567
G1 X149.314 Y159.233 E.0151
G1 X140.848 Y150.767 E.3567
G1 X140.804 Y150.767 E.00132
G1 X140.804 Y151.23 E.01378
G1 X148.807 Y159.233 E.33721
G1 X148.301 Y159.233 E.0151
G1 X140.804 Y151.736 E.31586
G1 X140.804 Y152.243 E.0151
G1 X147.794 Y159.233 E.29451
G1 X147.287 Y159.233 E.0151
G1 X140.804 Y152.75 E.27316
G1 X140.804 Y153.256 E.0151
G1 X146.781 Y159.233 E.25181
G1 X146.274 Y159.233 E.0151
G1 X140.804 Y153.763 E.23047
G1 X140.804 Y154.27 E.0151
G1 X145.767 Y159.233 E.20912
G1 X145.261 Y159.233 E.0151
G1 X140.804 Y154.776 E.18777
G1 X140.804 Y155.283 E.0151
G1 X144.754 Y159.233 E.16642
G1 X144.247 Y159.233 E.0151
G1 X140.804 Y155.79 E.14507
G1 X140.804 Y156.297 E.0151
G1 X143.74 Y159.233 E.12372
G1 X143.234 Y159.233 E.0151
G1 X140.804 Y156.803 E.10237
G1 X140.804 Y157.31 E.0151
G1 X142.727 Y159.233 E.08102
G1 X142.22 Y159.233 E.0151
G1 X140.804 Y157.817 E.05967
G1 X140.804 Y158.323 E.0151
G1 X141.714 Y159.233 E.03833
G1 X141.207 Y159.233 E.0151
G1 X140.643 Y158.669 E.02375
; stop printing object Overhang+Angle+Test+30-85.stl id:0 copy 0
M106 S255
;LAYER_CHANGE
;Z:0.4
;HEIGHT:0.2
;BEFORE_LAYER_CHANGE
;0.4
G92 E0

G1 E-4.55 F2700
;WIPE_START
G1 F6000
G1 X141.207 Y159.233 E-.3587
G1 X141.41 Y159.233 E-.0913
;WIPE_END
EXCLUDE_OBJECT_END NAME=Overhang_Angle_Test_30-85.stl_id_0_copy_0
TIMELAPSE_TAKE_FRAME

;_SET_FAN_SPEED_CHANGING_LAYER
SET_VELOCITY_LIMIT ACCEL=5000
M104 S220 ; set nozzle temperature
; printing object Overhang+Angle+Test+30-85.stl id:0 copy 0
EXCLUDE_OBJECT_START NAME=Overhang_Angle_Test_30-85.stl_id_0_copy_0
G1 X140.536 Y159.501 Z.4 F12000
G1 E5 F1800
SET_VELOCITY_LIMIT ACCEL=6000
;TYPE:Inner wall
;WIDTH:0.399999
G1 F5800
G1 X140.536 Y150.499 E.26727
G1 X196.457 Y150.499 E1.66037
G1 X196.457 Y159.501 E.26727
G1 X140.576 Y159.501 E1.65918
SET_VELOCITY_LIMIT ACCEL=5000
G1 X140.179 Y159.858 F12000
SET_VELOCITY_LIMIT ACCEL=6000
G1 F5800
G1 X140.179 Y150.142 E.28848
G1 X196.814 Y150.142 E1.68157
G1 X196.814 Y159.858 E.28848
M73 P3 R26
G1 X140.219 Y159.858 E1.68038
SET_VELOCITY_LIMIT ACCEL=5000
G1 X139.822 Y160.215 F12000
SET_VELOCITY_LIMIT ACCEL=6000
;TYPE:Outer wall
G1 F5800
G1 X139.822 Y149.785 E.30968
G1 X197.171 Y149.785 E1.70277
G1 X197.171 Y160.215 E.30968
G1 X139.862 Y160.215 E1.70159
SET_VELOCITY_LIMIT ACCEL=5000
G1 E-4.53448 F2700
;WIPE_START
G1 F5800
G1 X139.858 Y159.215 E-.46552
;WIPE_END
G1 Z1.2 F12000
G1 X140.905 Y150.81 Z1.2
G1 Z.4
G1 E5 F1800
SET_VELOCITY_LIMIT ACCEL=7000
;TYPE:Internal solid infill
;WIDTH:0.38292
G1 F7400
G1 X140.842 Y150.847 E.00208
G1 X140.905 Y150.884 E.00208
G1 X140.907 Y150.882 E.00007
SET_VELOCITY_LIMIT ACCEL=5000
G1 X194.688 Y159.144 F12000
SET_VELOCITY_LIMIT ACCEL=7000
;WIDTH:0.399999
G1 F7400
G1 X196.1 Y159.144 E.04192
G1 X196.1 Y157.732 E.04192
G1 X194.717 Y159.115 E.05809
SET_VELOCITY_LIMIT ACCEL=5000
G1 X195.716 Y158.679 F12000
SET_VELOCITY_LIMIT ACCEL=7000
;WIDTH:0.512866
G1 F7400
G1 X195.657 Y158.679 E.0023
G1 X195.628 Y158.73 E.0023
G1 X195.657 Y158.781 E.0023
G1 X195.716 Y158.781 E.0023
G1 X195.725 Y158.765 E.00073
SET_VELOCITY_LIMIT ACCEL=5000
G1 X196.35 Y157.027 F12000
SET_VELOCITY_LIMIT ACCEL=7000
;WIDTH:0.400584
G1 F7400
G1 X194.144 Y159.233 E.09278
G1 X193.638 Y159.233 E.01504
G1 X196.189 Y156.682 E.1073
G1 X196.189 Y156.176 E.01504
G1 X193.132 Y159.233 E.12857
G1 X192.627 Y159.233 E.01504
G1 X196.189 Y155.67 E.14984
G1 X196.189 Y155.164 E.01504
G1 X192.121 Y159.233 E.17112
G1 X191.615 Y159.233 E.01504
G1 X196.189 Y154.659 E.19239
G1 X196.189 Y154.153 E.01504
G1 X191.109 Y159.233 E.21367
G1 X190.603 Y159.233 E.01504
G1 X196.189 Y153.647 E.23494
G1 X196.189 Y153.141 E.01504
G1 X190.098 Y159.233 E.25621
G1 X189.592 Y159.233 E.01504
G1 X196.189 Y152.635 E.27749
G1 X196.189 Y152.13 E.01504
G1 X189.086 Y159.233 E.29876
G1 X188.58 Y159.233 E.01504
G1 X196.189 Y151.624 E.32003
G1 X196.189 Y151.118 E.01504
G1 X188.074 Y159.233 E.34131
G1 X187.568 Y159.233 E.01504
G1 X196.035 Y150.767 E.35607
G1 X195.529 Y150.767 E.01504
G1 X187.063 Y159.233 E.35607
G1 X186.557 Y159.233 E.01504
G1 X195.023 Y150.767 E.35607
G1 X194.517 Y150.767 E.01504
G1 X186.051 Y159.233 E.35607
G1 X185.545 Y159.233 E.01504
G1 X194.011 Y150.767 E.35607
G1 X193.506 Y150.767 E.01504
G1 X185.039 Y159.233 E.35607
G1 X184.534 Y159.233 E.01504
G1 X193 Y150.767 E.35607
G1 X192.494 Y150.767 E.01504
G1 X184.028 Y159.233 E.35607
G1 X183.522 Y159.233 E.01504
G1 X191.988 Y150.767 E.35607
G1 X191.482 Y150.767 E.01504
G1 X183.016 Y159.233 E.35607
G1 X182.51 Y159.233 E.01504
G1 X190.976 Y150.767 E.35607
G1 X190.471 Y150.767 E.01504
G1 X182.005 Y159.233 E.35607
G1 X181.499 Y159.233 E.01504
G1 X189.965 Y150.767 E.35607
G1 X189.459 Y150.767 E.01504
G1 X180.993 Y159.233 E.35607
G1 X180.487 Y159.233 E.01504
G1 X188.953 Y150.767 E.35607
G1 X188.447 Y150.767 E.01504
G1 X179.981 Y159.233 E.35607
G1 X179.475 Y159.233 E.01504
G1 X187.942 Y150.767 E.35607
G1 X187.436 Y150.767 E.01504
G1 X178.97 Y159.233 E.35607
G1 X178.464 Y159.233 E.01504
G1 X186.93 Y150.767 E.35607
G1 X186.424 Y150.767 E.01504
G1 X177.958 Y159.233 E.35607
G1 X177.452 Y159.233 E.01504
G1 X185.918 Y150.767 E.35607
G1 X185.412 Y150.767 E.01504
G1 X176.946 Y159.233 E.35607
G1 X176.441 Y159.233 E.01504
G1 X184.907 Y150.767 E.35607
G1 X184.401 Y150.767 E.01504
G1 X175.935 Y159.233 E.35607
G1 X175.429 Y159.233 E.01504
G1 X183.895 Y150.767 E.35607
G1 X183.389 Y150.767 E.01504
G1 X174.923 Y159.233 E.35607
G1 X174.417 Y159.233 E.01504
G1 X182.883 Y150.767 E.35607
G1 X182.378 Y150.767 E.01504
G1 X173.912 Y159.233 E.35607
G1 X173.406 Y159.233 E.01504
G1 X181.872 Y150.767 E.35607
G1 X181.366 Y150.767 E.01504
G1 X172.9 Y159.233 E.35607
G1 X172.394 Y159.233 E.01504
G1 X180.86 Y150.767 E.35607
G1 X180.354 Y150.767 E.01504
G1 X171.888 Y159.233 E.35607
G1 X171.382 Y159.233 E.01504
G1 X179.849 Y150.767 E.35607
G1 X179.343 Y150.767 E.01504
G1 X170.877 Y159.233 E.35607
G1 X170.371 Y159.233 E.01504
