; HEADER_BLOCK_START
; generated by OrcaSlicer 2.3.0 on 2025-09-08 at 11:43:54
; total layer number: 255
;_GP_TOTAL_LAYER_NUMBER_PLACEHOLDER
; filament_density: 1.21
; filament_diameter: 1.75
; max_z_height: 51.00
; HEADER_BLOCK_END

; THUMBNAIL_BLOCK_START

;
; THUMBNAIL_BLOCK_END

; THUMBNAIL_BLOCK_START

;
; THUMBNAIL_BLOCK_END

; external perimeters extrusion width = 0.40mm
; perimeters extrusion width = 0.40mm
; infill extrusion width = 0.40mm
; solid infill extrusion width = 0.40mm
; top infill extrusion width = 0.40mm
; support material extrusion width = 0.45mm
; first layer extrusion width = 0.40mm

; EXECUTABLE_BLOCK_START
EXCLUDE_OBJECT_DEFINE NAME=tower_with_seam.stl_id_0_copy_0 CENTER=155,155 POLYGON=[[120,155],[155,120],[190,155],[190,189.75],[184.75,189.788],[155,190],[120,189.75],[120,155]]
M73 P0 R16
;TYPE:Custom
; === Prep ===
PRINT_START

; === Adaptive mesh over object bounds from Orca ===
BED_MESH_CLEAR
BED_MESH_CALIBRATE mesh_min=111.684,111.719 mesh_max=198.316,198.093 algorithm=bicubic probe_count=4,4

; --- Park in middle while heating ---
G1 Z20 F3000
G1 X150 Y150 F9000

; --- Heat (macro handles bedless vs heated automatically) ---
HEAT_WAIT BED=0 EXTRUDER=215

; Small safety lift before purge (optional)
G1 Z5 F3000

; Purge line
_PURGE_LINE
G90
G21
M83 ; use relative distances for extrusion
; Filament gcode
M106 S0
;LAYER_CHANGE
;Z:0.2
;HEIGHT:0.2
;BEFORE_LAYER_CHANGE
;0.2
G92 E0

G1 E-5 F1800
TIMELAPSE_TAKE_FRAME

;_SET_FAN_SPEED_CHANGING_LAYER
SET_PRESSURE_ADVANCE ADVANCE=0; Override pressure advance value
SET_VELOCITY_LIMIT ACCEL=1500
G1 Z1 F12000
G1 X135.726 Y130.973
G1 Z1
G1 Z.2
G1 E5 F1800
;TYPE:Skirt
;WIDTH:0.4
G1 F3600
G1 X148.959 Y114.52 E.62064
G1 X149.452 Y114.038 E.02027
G1 X150.561 Y113.187 E.0411
G1 X151.215 Y112.809 E.0222
G1 X152.507 Y112.274 E.0411
G1 X153.236 Y112.079 E.0222
G1 X154.622 Y111.896 E.0411
G1 X155.378 Y111.896 E.0222
G1 X156.764 Y112.079 E.0411
G1 X157.493 Y112.274 E.0222
G1 X158.785 Y112.809 E.0411
G1 X159.439 Y113.187 E.0222
G1 X160.548 Y114.038 E.0411
G1 X161.041 Y114.52 E.02027
G1 X192.169 Y153.222 E1.45993
G1 X192.773 Y154.59 E.04396
G1 X198.139 Y189.288 E1.03204
G1 X198.139 Y190.043 E.0222
G1 X197.957 Y191.429 E.0411
G1 X197.761 Y192.159 E.0222
G1 X197.226 Y193.451 E.0411
G1 X196.849 Y194.105 E.0222
G1 X195.997 Y195.214 E.0411
G1 X195.463 Y195.748 E.0222
G1 X194.354 Y196.599 E.0411
G1 X193.7 Y196.977 E.0222
G1 X192.408 Y197.512 E.0411
G1 X191.679 Y197.707 E.0222
G1 X189.915 Y197.914 E.0522
G1 X120.085 Y197.914 E2.05261
G1 X118.321 Y197.707 E.0522
G1 X117.592 Y197.512 E.0222
G1 X116.3 Y196.977 E.0411
G1 X115.646 Y196.599 E.0222
G1 X114.537 Y195.748 E.0411
G1 X114.003 Y195.214 E.0222
G1 X113.151 Y194.105 E.0411
G1 X112.774 Y193.451 E.0222
G1 X112.239 Y192.159 E.0411
G1 X112.043 Y191.429 E.0222
G1 X111.861 Y190.043 E.0411
G1 X111.861 Y189.288 E.0222
G1 X117.227 Y154.59 E1.03204
G1 X117.831 Y153.222 E.04396
G1 X135.701 Y131.004 E.83811
M73 P1 R16
G1 X135.979 Y131.228 F12000
G1 F3600
G1 X149.237 Y114.744 E.62181
G1 X149.669 Y114.321 E.01777
G1 X150.778 Y113.47 E.0411
G1 X151.352 Y113.139 E.01946
G1 X152.643 Y112.604 E.0411
G1 X153.283 Y112.433 E.01946
G1 X154.669 Y112.25 E.0411
G1 X155.331 Y112.25 E.01946
G1 X156.717 Y112.433 E.0411
G1 X157.357 Y112.604 E.01946
G1 X158.648 Y113.139 E.0411
G1 X159.222 Y113.47 E.01946
G1 X160.331 Y114.321 E.0411
G1 X160.763 Y114.744 E.01777
G1 X191.891 Y153.446 E1.45993
G1 X192.42 Y154.645 E.03853
G1 X197.785 Y189.335 E1.03179
G1 X197.785 Y189.997 E.01946
G1 X197.603 Y191.383 E.0411
G1 X197.431 Y192.022 E.01946
G1 X196.896 Y193.314 E.0411
G1 X196.565 Y193.887 E.01946
G1 X195.714 Y194.997 E.0411
G1 X195.246 Y195.465 E.01946
G1 X194.137 Y196.316 E.0411
G1 X193.563 Y196.647 E.01946
G1 X192.272 Y197.182 E.0411
G1 X191.632 Y197.353 E.01946
G1 X189.915 Y197.557 E.05083
G1 X120.085 Y197.557 E2.05261
G1 X118.368 Y197.353 E.05083
G1 X117.728 Y197.182 E.01946
G1 X116.437 Y196.647 E.0411
G1 X115.863 Y196.316 E.01946
G1 X114.754 Y195.465 E.0411
G1 X114.286 Y194.997 E.01946
G1 X113.435 Y193.887 E.0411
G1 X113.104 Y193.314 E.01946
G1 X112.569 Y192.022 E.0411
G1 X112.397 Y191.383 E.01946
G1 X112.215 Y189.997 E.0411
G1 X112.215 Y189.335 E.01946
G1 X117.58 Y154.645 E1.03179
G1 X118.109 Y153.446 E.03853
G1 X135.954 Y131.259 E.83694
G1 X136.232 Y131.483 F12000
G1 F3600
G1 X149.515 Y114.967 E.62299
G1 X150.996 Y113.753 E.05629
G1 X151.488 Y113.469 E.01672
G1 X152.78 Y112.934 E.0411
G1 X153.329 Y112.787 E.01672
G1 X154.716 Y112.604 E.0411
G1 X155.284 Y112.604 E.01672
G1 X156.671 Y112.787 E.0411
G1 X157.22 Y112.934 E.01672
G1 X158.512 Y113.469 E.0411
G1 X159.004 Y113.753 E.01672
G1 X160.485 Y114.967 E.05629
G1 X191.613 Y153.67 E1.45993
G1 X192.068 Y154.7 E.03311
G1 X197.431 Y189.381 E1.03155
G1 X197.431 Y189.95 E.01672
G1 X197.249 Y191.336 E.0411
G1 X197.101 Y191.886 E.01672
G1 X196.566 Y193.177 E.0411
G1 X196.282 Y193.67 E.01672
G1 X195.431 Y194.779 E.0411
G1 X195.029 Y195.181 E.01672
G1 X193.919 Y196.033 E.0411
G1 X193.427 Y196.317 E.01672
G1 X192.135 Y196.852 E.0411
G1 X191.586 Y196.999 E.01672
G1 X189.915 Y197.2 E.04946
G1 X120.085 Y197.2 E2.05261
G1 X118.414 Y196.999 E.04946
G1 X117.865 Y196.852 E.01672
G1 X116.573 Y196.317 E.0411
G1 X116.081 Y196.033 E.01672
G1 X114.971 Y195.181 E.0411
G1 X114.569 Y194.779 E.01672
G1 X113.718 Y193.67 E.0411
G1 X113.434 Y193.177 E.01672
G1 X112.899 Y191.886 E.0411
G1 X112.751 Y191.336 E.01672
G1 X112.569 Y189.95 E.0411
G1 X112.569 Y189.381 E.01672
G1 X117.932 Y154.7 E1.03155
G1 X118.387 Y153.67 E.03311
G1 X136.207 Y131.514 E.83576
; printing object tower_with_seam.stl id:0 copy 0
G1 E-4.5 F1800
M73 P2 R16
;WIPE_START
G1 F3600
G1 X136.834 Y130.735 E-.5
;WIPE_END
EXCLUDE_OBJECT_START NAME=tower_with_seam.stl_id_0_copy_0
G1 Z1 F12000
G1 X150.517 Y122.708 Z1
G1 Z.2
G1 E5 F1800
;TYPE:Brim
G1 F3600
G1 X150 Y121.46 E.03972
G1 X149.824 Y120.12 E.03972
G1 X150 Y118.781 E.03972
G1 X150.517 Y117.532 E.03972
G1 X151.34 Y116.46 E.03972
G1 X152.412 Y115.638 E.03972
G1 X153.66 Y115.12 E.03972
G1 X155 Y114.944 E.03972
G1 X156.34 Y115.12 E.03972
G1 X157.588 Y115.638 E.03972
G1 X158.66 Y116.46 E.03972
G1 X159.483 Y117.532 E.03972
G1 X160 Y118.781 E.03972
G1 X160.176 Y120.12 E.03972
G1 X160 Y121.46 E.03972
G1 X159.483 Y122.708 E.03972
G1 X158.77 Y123.637 E.03443
G1 X155.126 Y119.994 E.15146
G1 X155.006 Y119.942 E.00386
G1 X154.874 Y119.994 E.00417
G1 X151.23 Y123.637 E.15146
G1 X150.542 Y122.74 E.03325
G1 X150.829 Y122.522 F12000
G1 F3600
G1 X150.824 Y122.515 E.00026
G1 X150.354 Y121.38 E.03613
G1 X150.186 Y120.134 E.03694
G1 X150.346 Y118.888 E.03694
G1 X150.838 Y117.701 E.03776
G1 X151.606 Y116.706 E.03694
G1 X152.605 Y115.944 E.03694
G1 X153.768 Y115.467 E.03694
G1 X154.986 Y115.306 E.03613
G1 X156.232 Y115.467 E.03694
G1 X157.419 Y115.958 E.03776
G1 X158.414 Y116.726 E.03694
G1 X159.176 Y117.725 E.03694
G1 X159.654 Y118.888 E.03694
G1 X159.814 Y120.134 E.03694
G1 X159.646 Y121.38 E.03694
G1 X159.162 Y122.539 E.03694
G1 X158.809 Y123 E.01707
G1 X158.717 Y123.042 E.00295
G1 X158.648 Y123.011 E.00224
G1 X155.386 Y119.749 E.1356
G1 X155.159 Y119.619 E.00767
G1 X154.986 Y119.588 E.00517
G1 X154.749 Y119.66 E.00729
G1 X154.613 Y119.749 E.00476
G1 X151.352 Y123.011 E.13558
G1 X151.256 Y123.04 E.00295
G1 X151.191 Y123 E.00224
G1 X150.853 Y122.554 E.01645
G1 X151.145 Y122.343 F12000
G1 F3600
G1 X151.131 Y122.323 E.0007
G1 X150.707 Y121.299 E.03259
G1 X150.548 Y120.147 E.03417
G1 X150.7 Y118.967 E.03497
G1 X151.158 Y117.87 E.03495
G1 X151.871 Y116.953 E.03414
G1 X152.797 Y116.251 E.03416
G1 X153.874 Y115.813 E.03417
G1 X155 Y115.668 E.03338
G1 X156.126 Y115.813 E.03335
G1 X157.25 Y116.278 E.03577
G1 X158.167 Y116.991 E.03414
G1 X158.869 Y117.917 E.03416
G1 X159.307 Y118.994 E.03416
G1 X159.452 Y120.147 E.03416
G1 X159.293 Y121.298 E.03416
G1 X158.842 Y122.37 E.03417
G1 X158.773 Y122.46 E.00333
G1 X158.682 Y122.501 E.00295
G1 X158.612 Y122.47 E.00224
G1 X155.647 Y119.505 E.12328
G1 X155.342 Y119.313 E.01058
G1 X155.061 Y119.239 E.00854
G1 X154.87 Y119.25 E.00562
G1 X154.653 Y119.316 E.00669
G1 X154.548 Y119.365 E.00338
G1 X154.355 Y119.503 E.00699
G1 X151.389 Y122.468 E.12327
G1 X151.293 Y122.498 E.00295
G1 X151.228 Y122.457 E.00225
G1 X151.168 Y122.375 E.00299
G1 X151.392 Y121.894 F12000
G1 F3600
G1 X151.313 Y121.83 E.00298
G1 X151.059 Y121.217 E.0195
G1 X150.91 Y120.131 E.03222
G1 X151.053 Y119.047 E.03214
G1 X151.478 Y118.041 E.03212
G1 X152.135 Y117.201 E.03135
G1 X152.989 Y116.559 E.03139
G1 X153.979 Y116.159 E.03141
G1 X155.014 Y116.03 E.03065
G1 X156.046 Y116.166 E.0306
G1 X157.08 Y116.599 E.03295
G1 X157.919 Y117.256 E.03132
G1 X158.548 Y118.084 E.03057
G1 X158.954 Y119.072 E.03139
G1 X159.09 Y120.131 E.03139
G1 X158.948 Y121.189 E.03139
G1 X158.683 Y121.827 E.02031
G1 X158.605 Y121.891 E.00295
G1 X158.509 Y121.861 E.00297
G1 X155.907 Y119.26 E.10816
G1 X155.538 Y119.015 E.01301
G1 X155.425 Y118.965 E.00362
G1 X155.16 Y118.896 E.00805
G1 X155.034 Y118.883 E.00373
G1 X154.757 Y118.912 E.00819
G1 X154.557 Y118.972 E.00614
G1 X154.334 Y119.08 E.00727
G1 X154.155 Y119.207 E.00646
G1 X151.488 Y121.865 E.11068
G1 X151.43 Y121.883 E.00178
G1 X151.517 Y121.265 F12000
G1 F3600
G1 X151.439 Y121.201 E.00298
G1 X151.405 Y121.11 E.00286
G1 X151.272 Y120.116 E.02946
G1 X151.407 Y119.128 E.0293
G1 X151.797 Y118.212 E.02929
G1 X152.399 Y117.449 E.02855
G1 X153.179 Y116.867 E.02861
G1 X154.084 Y116.506 E.02864
G1 X155.026 Y116.392 E.02791
G1 X155.965 Y116.52 E.02785
G1 X156.885 Y116.904 E.0293
G1 X157.652 Y117.5 E.02855
G1 X158.227 Y118.252 E.02783
G1 X158.6 Y119.151 E.02862
G1 X158.728 Y120.116 E.02861
G1 X158.602 Y121.082 E.02862
G1 X158.558 Y121.197 E.00362
G1 X158.481 Y121.261 E.00295
G1 X158.384 Y121.232 E.00298
G1 X156.096 Y118.957 E.09484
G1 X155.742 Y118.721 E.01248
G1 X155.572 Y118.64 E.00553
G1 X155.257 Y118.552 E.00962
G1 X155.077 Y118.529 E.00533
G1 X154.728 Y118.556 E.0103
G1 X154.459 Y118.629 E.0082
G1 X154.186 Y118.755 E.00884
G1 X153.954 Y118.912 E.00822
G1 X151.613 Y121.236 E.09695
G1 X151.556 Y121.253 E.00178
G1 X151.76 Y120.521 F12000
G1 F3600
G1 X151.674 Y120.43 E.00366
G1 X151.634 Y120.131 E.00886
G1 X151.76 Y119.211 E.02729
G1 X152.102 Y118.409 E.02563
G1 X152.641 Y117.718 E.02576
G1 X153.368 Y117.176 E.02665
G1 X154.187 Y116.853 E.02588
G1 X155.037 Y116.753 E.02517
G1 X155.884 Y116.872 E.02512
G1 X156.69 Y117.21 E.0257
G1 X157.405 Y117.764 E.02659
G1 X157.92 Y118.445 E.02509
G1 X158.247 Y119.232 E.02505
G1 X158.366 Y120.102 E.02583
G1 X158.327 Y120.429 E.00967
G1 X158.269 Y120.511 E.00295
G1 X158.146 Y120.491 E.00367
G1 X156.285 Y118.653 E.07688
G1 X155.946 Y118.428 E.01198
G1 X155.733 Y118.321 E.00699
G1 X155.361 Y118.21 E.01141
G1 X155.04 Y118.174 E.0095
G1 X154.709 Y118.199 E.00974
G1 X154.371 Y118.283 E.01024
G1 X154.043 Y118.428 E.01056
G1 X153.761 Y118.612 E.00989
G1 X151.856 Y120.492 E.07868
G1 X151.798 Y120.509 E.00178
G1 X152.166 Y119.618 F12000
G1 F3600
G1 X152.088 Y119.554 E.00295
G1 X152.081 Y119.498 E.00166
G1 X152.113 Y119.294 E.00609
G1 X152.406 Y118.605 E.02201
G1 X152.905 Y117.967 E.02378
G1 X153.557 Y117.486 E.02383
G1 X154.288 Y117.201 E.02308
G1 X155.047 Y117.115 E.02244
G1 X155.801 Y117.225 E.0224
G1 X156.496 Y117.515 E.02213
G1 X157.137 Y118.009 E.0238
G1 X157.613 Y118.637 E.02315
G1 X157.894 Y119.313 E.02154
G1 X157.923 Y119.5 E.00554
G1 X157.889 Y119.594 E.00295
G1 X157.791 Y119.618 E.00295
G1 X157.742 Y119.59 E.00166
G1 X156.543 Y118.406 E.04954
G1 X156.148 Y118.134 E.01408
G1 X155.826 Y117.977 E.01054
G1 X155.472 Y117.871 E.01087
G1 X155.003 Y117.819 E.01387
G1 X154.616 Y117.854 E.01144
G1 X154.294 Y117.934 E.00973
G1 X153.841 Y118.133 E.01455
G1 X153.503 Y118.364 E.01203
G1 X152.262 Y119.589 E.05125
G1 X152.204 Y119.606 E.00178
G1 E-4.5 F1800
;WIPE_START
G1 F3600
G1 X152.088 Y119.554 E-.06362
G1 X152.081 Y119.498 E-.02823
G1 X152.113 Y119.294 E-.10351
G1 X152.352 Y118.733 E-.30464
;WIPE_END
G1 Z1 F12000
G1 X190.094 Y184.513 Z1
G1 Z.2
G1 E5 F1800
G1 F3600
G1 X191.255 Y184.666 E.03443
G1 X192.503 Y185.183 E.03972
G1 X193.575 Y186.006 E.03972
G1 X194.398 Y187.078 E.03972
G1 X194.915 Y188.326 E.03972
G1 X195.091 Y189.666 E.03972
G1 X194.915 Y191.005 E.03972
G1 X194.398 Y192.254 E.03972
G1 X193.575 Y193.326 E.03972
G1 X192.503 Y194.148 E.03972
G1 X191.255 Y194.665 E.03972
G1 X189.915 Y194.842 E.03972
G1 X188.575 Y194.665 E.03972
G1 X187.327 Y194.148 E.03972
G1 X186.255 Y193.326 E.03972
G1 X185.432 Y192.254 E.03972
G1 X184.915 Y191.005 E.03972
G1 X184.767 Y189.881 E.03334
G1 X189.916 Y189.844 E.15136
G1 X190.038 Y189.795 E.00386
G1 X190.094 Y189.666 E.00414
G1 X190.094 Y184.553 E.15028
G1 X190.498 Y184.954 F12000
G1 F3600
G1 X190.572 Y184.936 E.00224
G1 X191.147 Y185.012 E.01707
G1 X192.334 Y185.503 E.03776
G1 X193.309 Y186.252 E.03613
G1 X194.077 Y187.246 E.03694
G1 X194.569 Y188.433 E.03776
G1 X194.729 Y189.652 E.03613
G1 X194.569 Y190.898 E.03694
G1 X194.077 Y192.085 E.03776
G1 X193.329 Y193.06 E.03613
G1 X192.334 Y193.828 E.03694
G1 X191.147 Y194.319 E.03776
G1 X189.929 Y194.48 E.03613
G1 X188.683 Y194.319 E.03694
G1 X187.496 Y193.828 E.03776
G1 X186.501 Y193.06 E.03694
G1 X185.739 Y192.061 E.03694
G1 X185.269 Y190.925 E.03613
G1 X185.19 Y190.355 E.01691
G1 X185.225 Y190.261 E.00295
G1 X185.295 Y190.234 E.00221
G1 X189.909 Y190.201 E.13561
G1 X190.16 Y190.131 E.00767
G1 X190.304 Y190.029 E.00517
G1 X190.418 Y189.812 E.00722
G1 X190.451 Y189.655 E.00472
G1 X190.451 Y185.042 E.13558
G1 X190.479 Y184.989 E.00178
G1 X190.855 Y185.361 F12000
G1 F3600
G1 X190.929 Y185.343 E.00224
G1 X191.04 Y185.358 E.0033
G1 X192.165 Y185.824 E.03579
G1 X193.063 Y186.518 E.03336
G1 X193.757 Y187.416 E.03335
G1 X194.223 Y188.54 E.03578
G1 X194.367 Y189.666 E.03336
G1 X194.222 Y190.791 E.03335
G1 X193.757 Y191.916 E.03578
G1 X193.063 Y192.814 E.03336
G1 X192.165 Y193.507 E.03335
G1 X191.04 Y193.973 E.03578
G1 X189.915 Y194.118 E.03336
G1 X188.789 Y193.973 E.03335
M73 P3 R16
G1 X187.69 Y193.522 E.03495
G1 X186.748 Y192.795 E.03497
G1 X186.046 Y191.868 E.03417
G1 X185.621 Y190.844 E.0326
G1 X185.599 Y190.71 E.00397
G1 X185.634 Y190.616 E.00295
G1 X185.705 Y190.588 E.00223
G1 X189.899 Y190.558 E.1233
G1 X190.25 Y190.476 E.01058
G1 X190.5 Y190.328 E.00854
G1 X190.625 Y190.185 E.00559
G1 X190.73 Y189.986 E.00662
G1 X190.769 Y189.878 E.00335
G1 X190.808 Y189.646 E.00693
G1 X190.808 Y185.449 E.12335
G1 X190.836 Y185.396 E.00178
G1 X191.212 Y185.868 F12000
G1 F3600
G1 X191.313 Y185.857 E.00298
G1 X191.971 Y186.13 E.02095
G1 X192.798 Y186.764 E.03061
G1 X193.436 Y187.585 E.03057
G1 X193.876 Y188.647 E.0338
G1 X194.005 Y189.652 E.02979
G1 X193.876 Y190.684 E.03057
G1 X193.436 Y191.747 E.0338
G1 X192.817 Y192.549 E.02979
G1 X191.996 Y193.187 E.03057
G1 X190.933 Y193.627 E.0338
G1 X189.901 Y193.756 E.03058
G1 X188.896 Y193.627 E.0298
G1 X187.858 Y193.201 E.03296
G1 X186.995 Y192.53 E.03214
G1 X186.353 Y191.676 E.0314
G1 X186.11 Y191.09 E.01865
G1 X186.119 Y190.99 E.00295
G1 X186.208 Y190.942 E.00297
G1 X189.891 Y190.916 E.10826
G1 X190.325 Y190.825 E.01301
G1 X190.439 Y190.779 E.00362
G1 X190.675 Y190.639 E.00806
G1 X190.772 Y190.559 E.00372
G1 X190.946 Y190.343 E.00815
G1 X191.042 Y190.16 E.00608
G1 X191.123 Y189.928 E.0072
G1 X191.158 Y189.713 E.00641
G1 X191.165 Y185.956 E.11044
G1 X191.193 Y185.903 E.00178
G1 X191.568 Y186.401 F12000
G1 F3600
G1 X191.669 Y186.391 E.00298
G1 X191.778 Y186.437 E.00348
G1 X192.533 Y187.011 E.02788
G1 X193.116 Y187.755 E.02778
G1 X193.53 Y188.754 E.0318
G1 X193.644 Y189.666 E.02702
G1 X193.53 Y190.578 E.027
G1 X193.116 Y191.577 E.0318
G1 X192.551 Y192.303 E.02702
G1 X191.826 Y192.867 E.027
G1 X190.827 Y193.28 E.03178
G1 X189.915 Y193.394 E.02701
G1 X189.002 Y193.28 E.02706
G1 X188.027 Y192.88 E.03096
G1 X187.242 Y192.265 E.02932
G1 X186.655 Y191.466 E.02914
G1 X186.641 Y191.366 E.00295
G1 X186.741 Y191.295 E.0036
G1 X189.974 Y191.263 E.09506
G1 X190.39 Y191.176 E.01248
G1 X190.567 Y191.112 E.00553
G1 X190.851 Y190.949 E.00963
G1 X190.994 Y190.838 E.00531
G1 X191.219 Y190.572 E.01025
G1 X191.355 Y190.332 E.00813
G1 X191.458 Y190.052 E.00875
G1 X191.509 Y189.779 E.00815
